svg/fluentui-system-icons/ic_fluent_document_catch_up_20_filled.svg

<svg width="20" height="20" viewBox="0 0 20 20" fill="none" xmlns="http://www.w3.org/2000/svg">
<path d="M10 2V6.5C10 7.32843 10.6716 8 11.5 8H16V16.5C16 17.3284 15.3284 18 14.5 18H5.5C4.67157 18 4 17.3284 4 16.5V13H5.5C6.06816 13 6.58755 12.679 6.84164 12.1708L6.87593 12.1022L8.11538 15.0769C8.34108 15.6186 8.86191 15.9789 9.44837 15.9991C10.0348 16.0193 10.5792 15.6957 10.8416 15.1708L11.9271 13H12.5C13.3284 13 14 12.3284 14 11.5C14 10.6716 13.3284 10 12.5 10H11C10.4318 10 9.91245 10.321 9.65836 10.8292L9.62407 10.8978L8.38462 7.92308C8.15892 7.38141 7.63809 7.02109 7.05163 7.00089C6.46517 6.98069 5.92079 7.30433 5.65836 7.82918L4.57295 10H4V3.5C4 2.67157 4.67157 2 5.5 2H10ZM11 2.25V6.5C11 6.77614 11.2239 7 11.5 7H15.75L11 2.25ZM7.46154 8.30769C7.38631 8.12714 7.2127 8.00703 7.01721 8.0003C6.82172 7.99357 6.64026 8.10144 6.55279 8.27639L5.19098 11H3.5C3.22386 11 3 11.2239 3 11.5C3 11.7761 3.22386 12 3.5 12H5.5C5.68939 12 5.86252 11.893 5.94721 11.7236L6.95864 9.70075L9.03846 14.6923C9.11369 14.8729 9.2873 14.993 9.48279 14.9997C9.67828 15.0064 9.85974 14.8986 9.94721 14.7236L11.309 12H12.5C12.7761 12 13 11.7761 13 11.5C13 11.2239 12.7761 11 12.5 11H11C10.8106 11 10.6375 11.107 10.5528 11.2764L9.54136 13.2993L7.46154 8.30769Z" fill="#212121"/>
</svg>

<svg xmlns="http://www.w3.org/2000/svg" width="20" height="20"><path d="M10 2v4.5A1.5 1.5 0 0 0 11.5 8H16v8.5a1.5 1.5 0 0 1-1.5 1.5h-9A1.5 1.5 0 0 1 4 16.5V13h1.5a1.5 1.5 0 0 0 1.342-.83l.034-.068 1.24 2.975a1.5 1.5 0 0 0 2.726.094L11.927 13h.573a1.5 1.5 0 0 0 0-3H11a1.5 1.5 0 0 0-1.342.83l-.034.068-1.24-2.975a1.5 1.5 0 0 0-2.726-.094L4.573 10H4V3.5A1.5 1.5 0 0 1 5.5 2H10Zm1 .25V6.5a.5.5 0 0 0 .5.5h4.25L11 2.25ZM7.462 8.308a.5.5 0 0 0-.91-.032L5.192 11H3.5a.5.5 0 0 0 0 1h2a.5.5 0 0 0 .447-.276L6.96 9.7l2.08 4.991a.5.5 0 0 0 .908.032L11.31 12h1.19a.5.5 0 0 0 0-1H11a.5.5 0 0 0-.447.276L9.54 13.3 7.46 8.309Z"/></svg>
